X:24
T:Morpeth Rant. CAM2.[25]
B:Anon MS#2, early 19thC, Northumbria, Cocks Coll.
Z:Village Music Project 2016 Steve Mansfield
M:C|
L:1/8
Q:2/4=100
N:* Triplet marker not in Mss
N:NB should probably be d only plus blot.
K:Bb
"*"(3FGA | B2 FE DB,DF | GEGB AFAc | B2 gf edcB | A2c2c2 d>c |
B2 FE DB,DF | GEGB AFAc | Bbag fedc | B2B2B2 :|
|: (3fga | bfe"_NB"[dB] BAGF | fdec BAGF | egec dfdB | A2c2c2 (3FGA |
GEGB edcB | AFAc fedc | Bbag fedc | B2B2B2 :|

